X: 20
T: My Darling Asleep
Z: phlickey
S: https://thesession.org/tunes/76#setting51066
R: jig
M: 6/8
L: 1/8
K: Dmaj
|:fdd cAA|BGB A2G|FAA def|gfg eag|
fdd cAA|BGB A2G|FAA def|gec d3:|
|:FAA BAG|FAA BAG|FAA def|gfg eag|
fad ecA|BGB A2G|FAA def|gec d3:|

%-------------------- TUNE SEPARATOR --------------------%

